icons/radioB.svg

<svg width="24" height="24" viewBox="0 0 24 24" fill="none" xmlns="http://www.w3.org/2000/svg">
<path d="M21 11.0001V17.9001C21 19.3001 19.7 20.5001 18 20.5001H6C4.3 20.5001 3 19.3001 3 17.9001V11.0001C3 9.60015 4.3 8.40015 6 8.40015H18C19.6 8.50015 21 9.60015 21 11.0001Z" fill="black"/>
<path fill-rule="evenodd" clip-rule="evenodd" d="M6 9.15015C4.6244 9.15015 3.75 10.0988 3.75 11.0001V17.9001C3.75 18.8015 4.6244 19.7501 6 19.7501H18C19.3756 19.7501 20.25 18.8015 20.25 17.9001V11.0001C20.25 10.1515 19.3383 9.24446 17.9754 9.15015H6ZM2.25 11.0001C2.25 9.10149 3.9756 7.65015 6 7.65015H18.0234L18.0468 7.65161C19.8716 7.76566 21.75 9.05342 21.75 11.0001V17.9001C21.75 19.7988 20.0244 21.2501 18 21.2501H6C3.9756 21.2501 2.25 19.7988 2.25 17.9001V11.0001Z" fill="black"/>
<path fill-rule="evenodd" clip-rule="evenodd" d="M15.6649 3.15303C15.8567 3.52021 15.7144 3.97328 15.3472 4.16499L4.04723 10.065C3.68005 10.2567 3.22698 10.1145 3.03527 9.74728C2.84356 9.3801 2.9858 8.92703 3.35298 8.73532L14.653 2.83532C15.0202 2.64361 15.4732 2.78585 15.6649 3.15303Z" fill="black"/>
<path d="M9 17.5001C10.6569 17.5001 12 16.157 12 14.5001C12 12.8433 10.6569 11.5001 9 11.5001C7.34315 11.5001 6 12.8433 6 14.5001C6 16.157 7.34315 17.5001 9 17.5001Z" fill="white"/>
<path fill-rule="evenodd" clip-rule="evenodd" d="M9 12.2501C7.75736 12.2501 6.75 13.2575 6.75 14.5001C6.75 15.7428 7.75736 16.7501 9 16.7501C10.2426 16.7501 11.25 15.7428 11.25 14.5001C11.25 13.2575 10.2426 12.2501 9 12.2501ZM5.25 14.5001C5.25 12.4291 6.92893 10.7501 9 10.7501C11.0711 10.7501 12.75 12.4291 12.75 14.5001C12.75 16.5712 11.0711 18.2501 9 18.2501C6.92893 18.2501 5.25 16.5712 5.25 14.5001Z" fill="white"/>
<path d="M16 13.2001C15.8 13.2001 15.6 13.1001 15.5 13.0001C15.4 12.9001 15.2 12.6001 15.2 12.5001C15.2 12.4001 15.2 12.3001 15.3 12.2001C15.3 12.1001 15.4 12.0001 15.5 12.0001C15.8 11.7001 16.3 11.7001 16.6 12.0001C16.7 12.1001 16.7 12.1001 16.8 12.2001C16.8 12.3001 16.9 12.4001 16.9 12.5001C16.9 12.7001 16.8 12.9001 16.7 13.0001C16.6 13.1001 16.1 13.2001 16 13.2001Z" fill="white"/>
<path d="M16 15.2001C15.8 15.2001 15.6 15.1001 15.5 15.0001C15.4 14.9001 15.2 14.6001 15.2 14.5001C15.2 14.3001 15.3 14.1001 15.4 14.0001C15.7 13.7001 16.2 13.7001 16.5 14.0001C16.6 14.1001 16.7 14.3001 16.7 14.5001C16.7 14.7001 16.6 14.9001 16.5 15.0001C16.4 15.1001 16.1 15.2001 16 15.2001Z" fill="white"/>
<path d="M16 17.2001C15.8 17.2001 15.6 17.1001 15.5 17.0001C15.4 16.9001 15.2 16.6001 15.2 16.5001C15.2 16.4001 15.2 16.3001 15.3 16.2001C15.3 16.1001 15.4 16.0001 15.5 16.0001C15.8 15.7001 16.3 15.7001 16.6 16.0001C16.7 16.1001 16.7 16.1001 16.8 16.2001C16.8 16.3001 16.9 16.4001 16.9 16.5001C16.9 16.7001 16.8 16.9001 16.7 17.0001C16.6 17.1001 16.1 17.2001 16 17.2001Z" fill="white"/>
</svg>

<svg xmlns="http://www.w3.org/2000/svg" fill="none" viewBox="0 0 24 24">
  <path fill="#000" d="M21 11v6.9c0 1.4-1.3 2.6-3 2.6H6c-1.7 0-3-1.2-3-2.6V11c0-1.4 1.3-2.6 3-2.6h12c1.6.1 3 1.2 3 2.6Z"/>
  <path fill="#000" fill-rule="evenodd" d="M6 9.15c-1.376 0-2.25.949-2.25 1.85v6.9c0 .902.874 1.85 2.25 1.85h12c1.376 0 2.25-.948 2.25-1.85V11c0-.848-.912-1.756-2.275-1.85H6ZM2.25 11c0-1.899 1.726-3.35 3.75-3.35h12.023l.024.002c1.825.114 3.703 1.401 3.703 3.348v6.9c0 1.899-1.726 3.35-3.75 3.35H6c-2.024 0-3.75-1.451-3.75-3.35V11Z" clip-rule="evenodd"/>
  <path fill="#000" fill-rule="evenodd" d="M15.665 3.153a.75.75 0 0 1-.318 1.012l-11.3 5.9a.75.75 0 1 1-.694-1.33l11.3-5.9a.75.75 0 0 1 1.012.318Z" clip-rule="evenodd"/>
  <path fill="#fff" d="M9 17.5a3 3 0 1 0 0-6 3 3 0 0 0 0 6Z"/>
  <path fill="#fff" fill-rule="evenodd" d="M9 12.25a2.25 2.25 0 1 0 0 4.5 2.25 2.25 0 0 0 0-4.5ZM5.25 14.5a3.75 3.75 0 1 1 7.5 0 3.75 3.75 0 0 1-7.5 0Z" clip-rule="evenodd"/>
  <path fill="#fff" d="M16 13.2c-.2 0-.4-.1-.5-.2-.1-.1-.3-.4-.3-.5 0-.1 0-.2.1-.3 0-.1.1-.2.2-.2.3-.3.8-.3 1.1 0l.2.2c0 .1.1.2.1.3 0 .2-.1.4-.2.5-.1.1-.6.2-.7.2Zm0 2c-.2 0-.4-.1-.5-.2-.1-.1-.3-.4-.3-.5 0-.2.1-.4.2-.5.3-.3.8-.3 1.1 0 .1.1.2.3.2.5s-.1.4-.2.5c-.1.1-.4.2-.5.2Zm0 2c-.2 0-.4-.1-.5-.2-.1-.1-.3-.4-.3-.5 0-.1 0-.2.1-.3 0-.1.1-.2.2-.2.3-.3.8-.3 1.1 0l.2.2c0 .1.1.2.1.3 0 .2-.1.4-.2.5-.1.1-.6.2-.7.2Z"/>
</svg>
